X:1
T:Title
%%score { ( 1 3 ) | ( 2 4 ) }
L:1/8
M:4/4
K:Eb
V:1 treble nm="Grand Piano"
V:3 treble 
V:2 bass 
V:4 bass 
V:1
 z4 z2[Q:1/4=94] E>F | G>G G>G G>G (3[A,DF][B,DG][A,DF] | [G,E]6 [B,EG]>[B,FA] | %3
 [GB]>[GB] [GB]>[GB] e>e (3edc | B6[K:bass] z2[K:treble] | %5
 [B,EG]>[A,DF] [A,DF]>[B,DG] [CDA]2 [CDA]2 | [CEA]>[B,EG] [B,EG]>[B,FA] [EGB]2 E>F | %7
 G2 A2 B>c B>[Q:1/4=76]G[Q:1/4=93][Q:1/4=91][Q:1/4=90][Q:1/4=88][Q:1/4=87][Q:1/4=85][Q:1/4=84][Q:1/4=82][Q:1/4=81][Q:1/4=79][Q:1/4=78][Q:1/4=75][Q:1/4=73][Q:1/4=72] | %8
[M:7/8] F- F3 z z2 |] %9
V:2
 z4 z2 [E,G,]>[E,A,E] | [E,B,E]>[E,B,E] [E,B,E]>[E,B,E] [E,B,E]>[E,B,E] (3B,,B,,B,, | %2
 E,2 B,,2 E,2 E,>E, | [E,E]>[E,E] [E,E]>[E,E] [E,CE]>[E,CE] (3[E,CE][E,B,E][E,A,E] | [G,E]6 z2 | %5
 B,,>B,, B,,>B,, B,,2 B,,2 | E,>E, E,>E, E,2 [E,G,]>[E,A,E] | %7
 [E,B,E]2 [E,F,E]2 [E,G,E]>[E,A,E] [E,G,E]>[E,B,E] |[M:7/8] [F,=A,C]2 [B,,_A,]2 [E,G,]3 |] %9
V:3
 x8 | x8 | x8 | x8 | z2[K:bass] B,,2 E,2 z[K:treble] [B,EG] | x8 | x8 | x8 |[M:7/8] z2 D2 E3 |] %9
V:4
 x8 | x8 | x8 | x8 | E,2 z2 z2 z E, | x8 | x8 | x8 |[M:7/8] x7 |] %9

